img/icons/telegram.svg

<svg xmlns="http://www.w3.org/2000/svg" x="0px" y="0px" width="100" height="100" viewBox="0 0 100 100">
<path d="M 50 14 C 30.129581 14 14 30.129595 14 50 C 14 69.870405 30.129581 86 50 86 C 69.870419 86 86 69.870405 86 50 C 86 30.129595 69.870419 14 50 14 z M 50 16 C 68.78954 16 84 31.210473 84 50 C 84 68.789527 68.78954 84 50 84 C 31.21046 84 16 68.789527 16 50 C 16 31.210473 31.21046 16 50 16 z M 50 19 C 32.884791 19 19 32.884791 19 50 C 19 67.115209 32.884791 81 50 81 C 67.115209 81 81 67.115209 81 50 C 81 40.904382 77.079076 32.716819 70.835938 27.046875 A 0.50005 0.50005 0 1 0 70.164062 27.787109 C 76.206924 33.275165 80 41.191618 80 50 C 80 66.574791 66.574791 80 50 80 C 33.425209 80 20 66.574791 20 50 C 20 33.425209 33.425209 20 50 20 C 53.630741 20 57.108062 20.645941 60.328125 21.826172 A 0.50018397 0.50018397 0 1 0 60.671875 20.886719 C 57.343938 19.66695 53.749259 19 50 19 z M 63.480469 22.140625 A 0.50005 0.50005 0 0 0 63.277344 23.091797 C 63.947092 23.423229 64.604492 23.779343 65.246094 24.158203 A 0.50005 0.50005 0 1 0 65.753906 23.296875 C 65.091508 22.905735 64.414908 22.53788 63.722656 22.195312 A 0.50005 0.50005 0 0 0 63.480469 22.140625 z M 67.507812 24.511719 A 0.50005 0.50005 0 0 0 67.457031 24.513672 A 0.50005 0.50005 0 0 0 67.212891 25.425781 C 67.545583 25.65906 67.873213 25.899999 68.195312 26.146484 A 0.50080937 0.50080937 0 1 0 68.804688 25.351562 C 68.470787 25.096048 68.130417 24.848143 67.787109 24.607422 A 0.50005 0.50005 0 0 0 67.507812 24.511719 z M 64.375 34 C 63.476075 34 62.601434 34.413201 62.599609 34.414062 L 29.75 47.712891 C 29.702565 47.72856 29.340082 47.851727 28.941406 48.117188 C 28.516073 48.4004 28 48.891137 28 49.626953 C 28 50.41323 28.480715 50.965082 28.904297 51.269531 C 29.327878 51.573981 29.75 51.697266 29.75 51.697266 A 0.50005 0.50005 0 0 0 29.761719 51.699219 L 37.363281 53.761719 C 37.442004 53.981983 38.300354 56.382225 39.246094 59.025391 C 39.740179 60.406266 40.237195 61.791758 40.615234 62.845703 C 40.804254 63.372676 40.963406 63.81643 41.078125 64.134766 C 41.135485 64.293934 41.181557 64.422079 41.214844 64.513672 C 41.248134 64.605262 41.254427 64.628694 41.279297 64.689453 C 41.480639 65.181984 41.662713 65.467156 41.837891 65.652344 C 41.925481 65.744934 42.014211 65.811584 42.099609 65.857422 C 42.12055 65.868662 42.140116 65.874153 42.160156 65.882812 A 0.50005 0.50005 0 0 0 42.169922 65.888672 C 42.17323 65.890239 42.176375 65.89105 42.179688 65.892578 C 42.193724 65.898104 42.20877 65.905884 42.222656 65.910156 C 42.239512 65.915346 42.249254 65.915902 42.269531 65.919922 C 42.430547 65.977645 42.59317 66.003698 42.742188 65.994141 C 43.226669 65.974381 43.566406 65.707031 43.566406 65.707031 A 0.50005 0.50005 0 0 0 43.597656 65.679688 L 48.550781 61.103516 L 56.039062 67.439453 C 56.039062 67.439453 56.223096 67.604589 56.505859 67.738281 C 56.788623 67.872015 57.201788 68 57.726562 68 C 58.699743 68 59.357346 67.564591 59.705078 67.123047 C 60.05281 66.681502 60.134766 66.214844 60.134766 66.214844 L 60.134766 66.222656 C 60.134766 66.222656 61.580813 58.726845 63.033203 51.197266 C 63.759398 47.432476 64.487017 43.659577 65.035156 40.810547 C 65.309226 39.386032 65.539226 38.191691 65.701172 37.345703 C 65.782142 36.922709 65.846072 36.586557 65.890625 36.351562 C 65.912905 36.234065 65.931139 36.141807 65.943359 36.076172 C 65.955589 36.010532 65.956987 36.014912 65.966797 35.943359 C 65.986022 35.804288 66 35.654058 66 35.5 C 66 35.054167 65.80256 34.645736 65.494141 34.384766 C 65.185721 34.123795 64.7875 34 64.375 34 z M 64.375 35 C 64.5875 35 64.751779 35.0637 64.849609 35.146484 C 64.94744 35.229264 65 35.320833 65 35.5 C 65 35.58794 64.991302 35.699724 64.976562 35.806641 C 64.984062 35.751961 64.970864 35.830871 64.958984 35.894531 C 64.947124 35.958191 64.930373 36.049079 64.908203 36.166016 C 64.863863 36.399889 64.799666 36.735509 64.71875 37.158203 C 64.556919 38.003591 64.328727 39.196734 64.054688 40.621094 C 63.506608 43.469813 62.778914 47.243103 62.052734 51.007812 C 60.600375 58.537233 59.152344 66.033203 59.152344 66.033203 A 0.50005 0.50005 0 0 0 59.150391 66.041016 C 59.150391 66.041016 59.112441 66.259451 58.919922 66.503906 C 58.727454 66.748375 58.426383 67 57.726562 67 C 57.361339 67 57.101331 66.915239 56.933594 66.835938 C 56.765857 66.756627 56.720703 66.708984 56.720703 66.708984 A 0.50005 0.50005 0 0 0 56.703125 66.691406 L 44.619141 56.464844 L 59.541016 42.273438 L 59.501953 42.306641 C 59.830382 42.053751 60 41.668049 60 41.285156 A 0.50005 0.50005 0 0 0 60 41.283203 C 59.998399 41.015892 59.91381 40.74217 59.740234 40.511719 C 59.497398 40.185257 59.119542 40.002224 58.738281 40 L 58.736328 40 C 58.46081 39.9987 58.183998 40.09149 57.955078 40.267578 L 57.996094 40.238281 L 37.746094 52.771484 L 37.998047 52.914062 A 0.50005 0.50005 0 0 0 37.880859 52.867188 L 30.027344 50.736328 L 30.023438 50.734375 C 30.014337 50.731575 29.756041 50.651435 29.488281 50.458984 C 29.2159 50.26323 29 50.019676 29 49.626953 C 29 49.37777 29.20243 49.144757 29.496094 48.949219 C 29.789758 48.753681 30.091797 48.652344 30.091797 48.652344 A 0.50005 0.50005 0 0 0 30.125 48.640625 L 62.988281 35.335938 A 0.50005 0.50005 0 0 0 63.001953 35.330078 C 63.001953 35.330078 63.814863 35 64.375 35 z M 58.732422 41 C 58.808562 41.000332 58.880665 41.03034 58.939453 41.109375 A 0.50005 0.50005 0 0 0 58.941406 41.111328 C 58.979566 41.161618 58.99924 41.222623 59 41.287109 C 58.999485 41.375539 58.9617 41.460899 58.890625 41.515625 A 0.50005 0.50005 0 0 0 58.851562 41.548828 L 43.525391 56.125 A 0.50005 0.50005 0 0 0 43.376953 56.408203 L 43.373047 56.408203 L 42.107422 64.042969 C 42.080122 63.967529 42.055118 63.90105 42.017578 63.796875 C 41.903184 63.479441 41.74362 63.034543 41.554688 62.507812 C 41.17682 61.454354 40.68154 60.06825 40.1875 58.6875 C 39.267471 56.116189 38.476714 53.907363 38.355469 53.568359 L 58.523438 41.087891 A 0.50005 0.50005 0 0 0 58.564453 41.058594 C 58.621023 41.015084 58.678551 40.99967 58.732422 41 z M 44.216797 57.435547 L 47.78125 60.453125 L 42.982422 64.886719 L 44.216797 57.435547 z"></path>
</svg>

<svg xmlns="http://www.w3.org/2000/svg" x="0px" y="0px" width="100" height="100" viewBox="0,0,256,256">
<g transform="translate(16.64,16.64) scale(0.87,0.87)"><g fill="#000000" fill-rule="nonzero" stroke="none" stroke-width="1" stroke-linecap="butt" stroke-linejoin="miter" stroke-miterlimit="10" stroke-dasharray="" stroke-dashoffset="0" font-family="none" font-weight="none" font-size="none" text-anchor="none" style="mix-blend-mode: normal"><g transform="scale(2.56,2.56)"><path d="M50,14c-19.87042,0 -36,16.12959 -36,36c0,19.87041 16.12958,36 36,36c19.87042,0 36,-16.12959 36,-36c0,-19.87041 -16.12958,-36 -36,-36zM50,16c18.78954,0 34,15.21047 34,34c0,18.78953 -15.21046,34 -34,34c-18.78954,0 -34,-15.21047 -34,-34c0,-18.78953 15.21046,-34 34,-34zM50,19c-17.11521,0 -31,13.88479 -31,31c0,17.11521 13.88479,31 31,31c17.11521,0 31,-13.88479 31,-31c0,-9.09562 -3.92092,-17.28318 -10.16406,-22.95312c-0.13124,-0.12623 -0.32074,-0.17114 -0.49467,-0.11724c-0.17394,0.05391 -0.30482,0.19811 -0.34167,0.37644c-0.03685,0.17833 0.02615,0.3626 0.16447,0.48104c6.04286,5.48806 9.83594,13.40451 9.83594,22.21289c0,16.57479 -13.42521,30 -30,30c-16.57479,0 -30,-13.42521 -30,-30c0,-16.57479 13.42521,-30 30,-30c3.63074,0 7.10806,0.64594 10.32813,1.82617c0.16782,0.06143 0.35567,0.02865 0.49277,-0.08598c0.1371,-0.11463 0.20263,-0.29371 0.17189,-0.46976c-0.03074,-0.17605 -0.15307,-0.32232 -0.32091,-0.38371c-3.32794,-1.21977 -6.92262,-1.88672 -10.67187,-1.88672zM63.48047,22.14063c-0.23125,0.00568 -0.42843,0.16924 -0.47674,0.39547c-0.04831,0.22622 0.06485,0.45605 0.27361,0.55571c0.66975,0.33143 1.32715,0.68755 1.96875,1.06641c0.15409,0.09526 0.34764,0.09974 0.50597,0.0117c0.15832,-0.08804 0.25665,-0.25482 0.25704,-0.43597c0.00038,-0.18115 -0.09724,-0.34835 -0.25519,-0.43705c-0.6624,-0.39114 -1.339,-0.75899 -2.03125,-1.10156c-0.07485,-0.0383 -0.15814,-0.05711 -0.24219,-0.05469zM67.50781,24.51172c-0.01695,-0.00021 -0.0339,0.00044 -0.05078,0.00195c-0.21205,0.01579 -0.39093,0.16396 -0.44591,0.36937c-0.05498,0.20541 0.02596,0.42312 0.20177,0.54273c0.33269,0.23328 0.66032,0.47422 0.98242,0.7207c0.142,0.10887 0.33129,0.13371 0.49657,0.06516c0.16528,-0.06855 0.28143,-0.22007 0.3047,-0.39748c0.02327,-0.17741 -0.04988,-0.35376 -0.1919,-0.46261c-0.3339,-0.25551 -0.67427,-0.50342 -1.01758,-0.74414c-0.08135,-0.05928 -0.17869,-0.09264 -0.2793,-0.0957zM64.375,34c-0.89892,0 -1.77357,0.4132 -1.77539,0.41406l-32.84961,13.29883c-0.04744,0.01567 -0.40992,0.13884 -0.80859,0.4043c-0.42533,0.28321 -0.94141,0.77395 -0.94141,1.50977c0,0.78628 0.48072,1.33813 0.9043,1.64258c0.42358,0.30445 0.8457,0.42773 0.8457,0.42773c0.0039,0.0007 0.00781,0.00135 0.01172,0.00195l7.60156,2.0625c0.07872,0.22026 0.93707,2.62051 1.88281,5.26367c0.49408,1.38088 0.9911,2.76637 1.36914,3.82031c0.18902,0.52697 0.34817,0.97073 0.46289,1.28906c0.05736,0.15917 0.10343,0.28731 0.13672,0.37891c0.03329,0.09159 0.03958,0.11502 0.06445,0.17578c0.20134,0.49253 0.38342,0.7777 0.55859,0.96289c0.08759,0.09259 0.17632,0.15924 0.26172,0.20508c0.02094,0.01124 0.04051,0.01673 0.06055,0.02539c0.00323,0.00199 0.00649,0.00394 0.00977,0.00586c0.00331,0.00157 0.00645,0.00238 0.00977,0.00391c0.01404,0.00553 0.02908,0.01331 0.04297,0.01758c0.01686,0.00519 0.0266,0.00575 0.04688,0.00977c0.16102,0.05772 0.32364,0.08378 0.47266,0.07422c0.48448,-0.01976 0.82422,-0.28711 0.82422,-0.28711c0.01079,-0.00868 0.02122,-0.0178 0.03125,-0.02734l4.95313,-4.57617l7.48828,6.33594c0,0 0.18403,0.16514 0.4668,0.29883c0.28276,0.13373 0.69593,0.26172 1.2207,0.26172c0.97318,0 1.63078,-0.43541 1.97852,-0.87695c0.34773,-0.44155 0.42969,-0.9082 0.42969,-0.9082v0.00781c0,0 1.44605,-7.49581 2.89844,-15.02539c0.72619,-3.76479 1.45381,-7.53769 2.00195,-10.38672c0.27407,-1.42451 0.50407,-2.61886 0.66602,-3.46484c0.08097,-0.42299 0.1449,-0.75915 0.18945,-0.99414c0.02228,-0.1175 0.04051,-0.20976 0.05273,-0.27539c0.01223,-0.06564 0.01363,-0.06126 0.02344,-0.13281c0.01923,-0.13907 0.0332,-0.2893 0.0332,-0.44336c0,-0.44583 -0.19744,-0.85426 -0.50586,-1.11523c-0.30842,-0.26097 -0.70664,-0.38477 -1.11914,-0.38477zM64.375,35c0.2125,0 0.37678,0.0637 0.47461,0.14648c0.09783,0.08278 0.15039,0.17435 0.15039,0.35352c0,0.08794 -0.0087,0.19972 -0.02344,0.30664c0.0075,-0.05468 -0.0057,0.02423 -0.01758,0.08789c-0.01186,0.06366 -0.02861,0.15455 -0.05078,0.27148c-0.04434,0.23387 -0.10854,0.56949 -0.18945,0.99219c-0.16183,0.84539 -0.39002,2.03853 -0.66406,3.46289c-0.54808,2.84872 -1.27577,6.62201 -2.00195,10.38672c-1.45236,7.52942 -2.90039,15.02539 -2.90039,15.02539c-0.00067,0.0026 -0.00132,0.0052 -0.00195,0.00781c0,0 -0.03795,0.21843 -0.23047,0.46289c-0.19247,0.24447 -0.49354,0.49609 -1.19336,0.49609c-0.36522,0 -0.62523,-0.08476 -0.79297,-0.16406c-0.16774,-0.07931 -0.21289,-0.12695 -0.21289,-0.12695c-0.00571,-0.006 -0.01157,-0.01187 -0.01758,-0.01758l-12.08398,-10.22656l14.92188,-14.19141l-0.03906,0.0332c0.32843,-0.25289 0.49805,-0.63859 0.49805,-1.02148c0,-0.00065 0,-0.0013 0,-0.00195c-0.0016,-0.26731 -0.08619,-0.54103 -0.25977,-0.77148c-0.24284,-0.32646 -0.62069,-0.5095 -1.00195,-0.51172h-0.00195c-0.27552,-0.0013 -0.55233,0.09149 -0.78125,0.26758l0.04102,-0.0293l-20.25,12.5332l0.25195,0.14258c-0.03693,-0.02051 -0.0763,-0.03626 -0.11719,-0.04687l-7.85352,-2.13086l-0.00391,-0.00195c-0.0091,-0.0028 -0.2674,-0.08294 -0.53516,-0.27539c-0.27238,-0.19575 -0.48828,-0.43931 -0.48828,-0.83203c0,-0.24918 0.20243,-0.4822 0.49609,-0.67773c0.29366,-0.19554 0.5957,-0.29687 0.5957,-0.29687c0.0112,-0.00352 0.02228,-0.00742 0.0332,-0.01172l32.86328,-13.30469c0.00459,-0.00189 0.00914,-0.00384 0.01367,-0.00586c0,0 0.81291,-0.33008 1.37305,-0.33008zM58.73242,41c0.07614,0.00033 0.14824,0.03034 0.20703,0.10938c0.00065,0.00065 0.0013,0.0013 0.00195,0.00195c0.03816,0.05029 0.05783,0.11129 0.05859,0.17578c-0.00052,0.08843 -0.0383,0.17379 -0.10937,0.22852c-0.01358,0.01039 -0.02662,0.02147 -0.03906,0.0332l-15.32617,14.57617c-0.07914,0.07561 -0.13129,0.1751 -0.14844,0.2832h-0.00391l-1.26562,7.63477c-0.0273,-0.07544 -0.0523,-0.14192 -0.08984,-0.24609c-0.11439,-0.31743 -0.27396,-0.76233 -0.46289,-1.28906c-0.37787,-1.05346 -0.87315,-2.43956 -1.36719,-3.82031c-0.92003,-2.57131 -1.71079,-4.78014 -1.83203,-5.11914l20.16797,-12.48047c0.01416,-0.00907 0.02784,-0.01885 0.04102,-0.0293c0.05657,-0.04351 0.1141,-0.05892 0.16797,-0.05859zM44.2168,57.43555l3.56445,3.01758l-4.79883,4.43359z"></path></g></g></g>
</svg>
